X: 41317
T: Tuolpagorni
R: three-two
M: 3/2
K: Dmajor
A B/A/ FD D>F|A B/A/ GE E>c|d d c/B/c/e/ A G/F/|GB
B/A/G/A/ E>F|A B/A/ FD D>F|A B/A/ GE E>A|c d/c/ B
A2 G/F/|1 E D/C/ D2 D/E/F/G/:|2 E D/C/ D2 D/E/F/A/||
|:[M:4/4] d e/d/ c d2 F G A|B c/B/ A B2 G G F|
E/D/E/F/ G/F/G/B/ B/A/G/F/ G d|[M:2/4]|d/c/e/c/ A B/c/|
[M:4/4] d e/d/ c d2 F G A|B c/B/ A B2 G G F|[M:3/4]|E d/c/
B A2 G/F/|1 E D/C/ D2 D/E/F/A/:|2 E D/C/ D2 z2||

